!! 00000] TT[00
!! NN
!!!OTL: Mai wawa , eigene Kinder verkaufen)
!!!ARE: Asia, China, Shanxi Jingbian
!! Ethnic Group: Han
!! I, 64
!!!SCT: C0018
!!!YEM: Copyright 1995, estate of Helmut Schaffrath.
**kern
*ICvox
*Ivox
*M2/4
*k[b-]
*F:
{8dd
4dd
8dd
=1
8gg
4cc
8a
=2
2g}
=3
{8.cc
16cc
8cc
8dd
=4
8.f
16g
8e-
8d
=5
2c}
=6
{4.b-
8cc
=7
4dd
4dd
=8
8g
8gg
8cc
8dd
=9
4b-
8a
8g}
=10
{8g
4f
8g
=11
4.dd
8b-
=12
8cc
4b-
8g
=13
8f
8g
8b-
8a
=14
2g}
==
!!!AGN: Xiaodiao. Xushi
!! Gehoert zur obigen Weise, obwohl hier anders geschrieben.
!!    Zwei Glissandi und zwei Fermaten.
!!!ONB: ESAC (Essen Associative Code) Database: CHINA
!!!AMT: simple duple
!!!AIN: vox
!!!EED: Helmut Schaffrath
!!!EEV: 1.0
*-
